!!!!SEGMENT: pl-kj--bj-muz-35233-iv_zelenski-wladyslaw--hymn-boga-rodzico.krn
!!!cenid: 18xx:3783
!!!COM: Żeleński, Władysław
!!!COM-rismID:
!!!CDT:
!!!CNT:
!!!OTL: Hymn Boga Rodzico
!!!PDT:
!!!AGN:
!!!SMS-siglum: PL-Kj
!!!SMS-shelfmark: BJ Muz. 35233 IV
!!!SMS-shelfwork: W
!!!SMS-variant:
!!!SMS-altvar:
!!!NIFC-rismSourceID:
!!!NIFC-islandoraID:
!!!URL-pdf-islandora:
!!!URL-scan: https://polona.pl/item/hymn-boga-rodzico-na-cztery-glosy-mieszane-z-towarzyszeniem-organu,ODU4NzIyMTc/0/#info:metadata @EN{Scan on Polona} @PL{Skany w portalu Polona}
!!!ONB-nifc:
!!!OMD: Lento
!!!AIN: 1 alto 1 bass 2 organ 1 soprn 1 tenor
!!!key: d
**kern	**kern	**dynam	**kern	**text	**dynam	**kern	**text	**dynam	**kern	**text	**dynam	**kern	**text	**dynam
*part6	*part5	*part5	*part4	*part4	*part4	*part3	*part3	*part3	*part2	*part2	*part2	*part1	*part1	*part1
*staff6	*staff5	*	*staff4	*staff4	*	*staff3	*staff3	*	*staff2	*staff2	*	*staff1	*staff1	*
*I"Organ	*I"Organ	*	*I"Bas	*	*	*I"Tenor	*	*	*I"Alt	*	*	*I"Sopran	*	*
*Iorgan	*Iorgan	*	*Ibass	*	*	*Itenor	*	*	*Ialto	*	*	*Isoprn	*	*
*ICklav	*ICklav	*	*ICvox	*	*	*ICvox	*	*	*ICvox	*	*	*ICvox	*	*
*clefF4	*clefG2	*	*clefF4	*	*	*clefG2	*	*	*clefG2	*	*	*clefG2	*	*
*	*	*	*	*	*	*ITrd8c12	*	*	*	*	*	*	*	*
*k[b-]	*k[b-]	*	*k[b-]	*	*	*k[b-]	*	*	*k[b-]	*	*	*k[b-]	*	*
*d:	*d:	*	*d:	*	*	*d:	*	*	*d:	*	*	*d:	*	*
*M4/4	*M4/4	*	*M4/4	*	*	*M4/4	*	*	*M4/4	*	*	*M4/4	*	*
*met(c)	*met(c)	*	*met(c)	*	*	*met(c)	*	*	*met(c)	*	*	*met(c)	*	*
=1	=1	=1	=1	=1	=1	=1	=1	=1	=1	=1	=1	=1	=1	=1
*^	*^	*	*	*	*	*	*	*	*	*	*	*	*	*
!	!	!	!	!	!	!	!LO:DY:b:rj	!	!	!LO:DY:b:rj	!	!	!LO:DY:b:rj	!	!	!LO:DY:b:rj
2D/	2D\	(2d/	2.d\	pp	2D\	Bo-	pp	2D/	Bo-	pp	2d/	Bo-	pp	2d/	Bo-	pp
4F 4BB-/	2ryy	4dd/)	.	.	4BB-/	-ga	.	4F/	-ga	.	4d/	-ga	.	4d/	-ga	.
4G 4GG/	.	4b-/	8d\L	.	4GG/	Ro-	.	4B-\	Ro-	.	4d/	Ro-	.	8d/L	Ro-	.
.	.	.	8e\J	.	.	.	.	.	.	.	.	.	.	8e/J	.	.
=2	=2	=2	=2	=2	=2	=2	=2	=2	=2	=2	=2	=2	=2	=2	=2	=2
(4.A/	4D\	1a	(4f\	.	(4D\	-dzi-	.	(>4.A/	-dzi-	.	(>4d/	-dzi-	.	(>4f/	-dzi-	.
.	4AA\	.	4e\	.	4AA/)	.	.	.	.	.	4c/)	.	.	4e/)	.	.
8G/	.	.	.	.	.	.	.	8G/)	.	.	.	.	.	.	.	.
2F/)	2D\	.	2d\)	.	2D\	-co!	.	2F/	-co!	.	2A/	-co!	.	2d/	-co!	.
=3	=3	=3	=3	=3	=3	=3	=3	=3	=3	=3	=3	=3	=3	=3	=3	=3
!	!	!	!	!	!	!	!LO:HP:a	!	!	!LO:HP:a	!	!	!LO:HP:a	!	!	!LO:HP:a
!	!	!	!	!	!	!	!LO:DY:b:rj	!	!	!LO:DY:b:rj	!	!	!LO:DY:b:rj	!	!	!LO:DY:b:rj
4rF	2rGG	(2f/	2f\	.	2D\	Dzie-	p <	2A/	Dzie-	p <	2d/	Dzie-	p <	2f/	Dzie-	p <
(4d/	.	.	.	.	.	.	.	.	.	.	.	.	.	.	.	.
[2c/)	4r	4g/	2e\	.	2C/	-wi-	[[	2c\	-wi-	[[	2e/	-wi-	[[	(>4g/	-wi-	.
.	(4C\	8a/L	.	.	.	.	.	.	.	.	.	.	.	8a/L	.	.
.	.	8b-/J	.	.	.	.	.	.	.	.	.	.	.	8b-/J)	.	[
=4	=4	=4	=4	=4	=4	=4	=4	=4	=4	=4	=4	=4	=4	=4	=4	=4
!	!	!	!	!	!	!	!LO:HP:a	!	!	!LO:HP:a	!	!	!LO:HP:a	!	!	!LO:HP:a
4c/]	4F\)	4a/)	4f\	.	[2F\	-co!	>	[2c\	-co!	>	[>2f/	-co!	>	[>2a/	-co!	>
4r	4ryy	[4f/	4ryy	.	.	.	.	.	.	.	.	.	.	.	.	.
2r	2ryy	8f/L]	2ryy	.	8F\]	.	.	8c\]	.	.	8f/]	.	]	8a/]	.	]
.	.	8g/	.	.	8r	.	]	8r	.	]	8r	.	.	8r	.	.
.	.	8a/	.	.	4r	.	.	4r	.	.	4r	.	.	4r	.	.
.	.	8b-/J	.	.	.	.	.	.	.	.	.	.	.	.	.	.
=5	=5	=5	=5	=5	=5	=5	=5	=5	=5	=5	=5	=5	=5	=5	=5	=5
!	!	!	!	!	!	!	!LO:DY:b:rj	!	!	!LO:DY:b:rj	!	!	!LO:DY:b:rj	!	!	!LO:DY:b:rj
2A/	[2F\	([<2cc/	2f\	f	2F\	Bo-	f	2A/	Bo-	f	2f/	Bo-	f	2cc\	Bo-	f
2c/	4F\]	4cc/]	2g\	.	4F\	-giem	.	4G/	-giem	.	4g/	-giem	.	4cc\	-giem	.
.	8E\L	4gg/)	.	.	8E\L	wsła-	.	4G/	wsła-	.	8c/L	wsła-	.	4cc\	wsła-	.
.	8D\J	.	.	.	8D\J	.	.	.	.	.	8d/J	.	.	.	.	.
=6	=6	=6	=6	=6	=6	=6	=6	=6	=6	=6	=6	=6	=6	=6	=6	=6
4.c/	(2C\	(2ee 2cc/	4a\	.	2C/	-wio-	.	2c\	-wio-	.	2e/	-wio-	.	(>4a/	-wio-	.
.	.	.	4g\	.	.	.	.	.	.	.	.	.	.	4g/)	.	.
8B-/	.	.	.	.	.	.	.	.	.	.	.	.	.	.	.	.
2A/	2D\)	4ff/	2f\	.	2D\	-na	.	2A/	-na	.	2d/	-na	.	2f/	-na	.
.	.	4dd/)	.	.	.	.	.	.	.	.	.	.	.	.	.	.
!!LO:LB:g=original
=7	=7	=7	=7	=7	=7	=7	=7	=7	=7	=7	=7	=7	=7	=7	=7	=7
1A	(2AA\	(4cc/	1e	.	(>2AA/	Ma-	.	1A	Ma-	.	1e	Ma-	.	(2cc\	Ma-	.
.	.	4a/	.	.	.	.	.	.	.	.	.	.	.	.	.	.
.	2C\)	4e/	.	.	2C/)	.	.	.	.	.	.	.	.	4a/	.	.
.	.	4g/)	.	.	.	.	.	.	.	.	.	.	.	4g/)	.	.
=8	=8	=8	=8	=8	=8	=8	=8	=8	=8	=8	=8	=8	=8	=8	=8	=8
!	!	!	!	!	!	!	!LO:HP:a	!	!	!LO:HP:a	!	!	!LO:HP:a	!	!	!LO:HP:a
1A	4D\	(4f/	4.d\	.	(4D\	-ry-	>	2A/	-ry-	>	(>4.d/	-ry-	>	(>4f/	-ry-	>
.	4AA\	4e/	.	.	4AA/)	.	.	.	.	.	.	.	.	4e/)	.	.
.	.	.	8c#X\	.	.	.	.	.	.	.	8c#X/)	.	.	.	.	.
.	2D\	2d/)	2d\	.	2D\	-a	]	2A/	-a	]	2d/	-a	]]	2d/	-a	]]
*v	*v	*	*	*	*	*	*	*	*	*	*	*	*	*	*	*
*	*v	*v	*	*	*	*	*	*	*	*	*	*	*	*	*
=9	=9	=9	=9	=9	=9	=9	=9	=9	=9	=9	=9	=9	=9	=9
!	!	!	!	!	!LO:DY:b:rj	!	!	!LO:DY:b:rj	!	!	!LO:DY:b:rj	!	!	!LO:DY:b:rj
2r	4r	p	2F\	U	p	2A/	U	p	2c/	U	p	2a/	U	p
.	(>4a/	.	.	.	.	.	.	.	.	.	.	.	.	.
(4d\	4f/	.	4D\	swe-	.	4A/	swe-	.	4d/	swe-	.	4f/	swe-	.
4B-\	4g 4d/)	.	4BB-/	-go	.	4B-\	-go	.	4d/	-go	.	4g/	-go	.
=10	=10	=10	=10	=10	=10	=10	=10	=10	=10	=10	=10	=10	=10	=10
*^	*^	*	*	*	*	*	*	*	*	*	*	*	*	*
!	!	!	!	!	!	!	!LO:HP:a	!	!	!LO:HP:a	!	!	!LO:HP:a	!	!	!LO:HP:a
1c)	4r	(4g/	2e\	.	2C/	Sy-	<	(4G/	Sy-	<	2e/	Sy-	<	(>4g/	Sy-	<
.	4C\	8a/L	.	.	.	.	.	4c\)	.	.	.	.	.	8a/L	.	.
.	.	8b-/J	.	.	.	.	.	.	.	.	.	.	.	8b-/J)	.	.
.	2F\	8a/L	2f\	.	2F\	-na	[	2c\	-na	[	2f/	-na	[	2a/	-na	[
.	.	8g/	.	.	.	.	.	.	.	.	.	.	.	.	.	.
.	.	8a/	.	.	.	.	.	.	.	.	.	.	.	.	.	.
.	.	8b-/J	.	.	.	.	.	.	.	.	.	.	.	.	.	.
=11	=11	=11	=11	=11	=11	=11	=11	=11	=11	=11	=11	=11	=11	=11	=11	=11
!	!	!	!	!	!	!	!LO:DY:b:rj	!	!	!LO:DY:b:rj	!	!	!LO:DY:b:rjLO:DY:b:rj	!	!	!LO:DY:b:rj
(4A/	4F\	(2cc/)	4f\	f	4F\	Ho-	f	4A/	Ho-	f	4f/	Ho-	f	4cc\	Ho-	f
4G/	4E\	.	2g\	.	4E\	-spo-	.	4G/	-spo-	.	4g/	-spo-	.	4cc\	-spo-	.
!	!	!	!	!	!	!	!LO:HP:a	!	!	!LO:HP:a	!	!	!LO:HP:a	!	!	!LO:HP:a
4.A/	2D\	2dd/	.	.	2D\	-dy-	>]	(4.A/	-dy-	>	(>4g/	-dy-	>	2dd\	-dy-	>]
.	.	.	4f\	.	.	.	.	.	.	.	4f/)	.	]]	.	.	.
8B-/	.	.	.	.	.	.	.	8B-\)	.	]]	.	.	.	.	.	.
=12	=12	=12	=12	=12	=12	=12	=12	=12	=12	=12	=12	=12	=12	=12	=12	=12
!	!	!	!	!	!	!	!LO:DY:b:rj	!	!	!LO:DY:b:rj	!	!	!LO:DY:b:rj	!	!	!LO:DY:b:rj
4c/)	4C\	4g 4e/)	4ryy	.	[2E\	-na	p	[2c\	-na	p	[>2e/	-na	p	[>2g/	-na	p
4r	4ryy	(4gg/	4r	.	.	.	.	.	.	.	.	.	.	.	.	.
2r	2ryy	4ee/	2r	.	8E\]	.	.	8c\]	.	.	8e/]	.	.	8g/]	.	.
.	.	.	.	.	8r	.	.	8r	.	.	8r	.	.	8r	.	.
.	.	4dd/)	.	.	4r	.	.	4r	.	.	4r	.	.	4r	.	.
!!LO:PB:g=original
=13	=13	=13	=13	=13	=13	=13	=13	=13	=13	=13	=13	=13	=13	=13	=13	=13
2A/	(4AA\	(2cc/	2e\	.	(>4AA/	Ma-	.	2c\	Ma-	.	2e/	Ma-	.	2cc\	Ma-	.
.	4C\	.	.	.	4C/)	.	.	.	.	.	.	.	.	.	.	.
2c/	4F\	4a/	4f\	.	4F\	-tko	.	4c\	-tko	.	4f/	-tko	.	4a/	-tko	.
.	4C\	4g/)	4e\	.	4C/	zwo-	.	4c\	zwo-	.	4e/	zwo-	.	4g/	zwo-	.
*	*	*v	*v	*	*	*	*	*	*	*	*	*	*	*	*	*
=14	=14	=14	=14	=14	=14	=14	=14	=14	=14	=14	=14	=14	=14	=14	=14
!	!	!	!	!	!	!	!	!	!	!	!	!LO:HP:a	!	!	!LO:HP:a
(2A/	4D\	(>4f 4d/	.	(4D\	-lo-	.	(>4.A/	-lo-	.	(>4d/	-lo-	<	(>4f/	-lo-	<
.	4AA\)	4e 4c/	.	4AA/)	.	.	.	.	.	4c/)	.	.	4e/)	.	.
.	.	.	.	.	.	.	8G/)	.	.	.	.	.	.	.	.
4F/)	4BB-\	8d/L	.	2BB-/	-na	.	2F/	-na	.	2B-/	-na	[	2d/	-na	[[
.	.	8e/	.	.	.	.	.	.	.	.	.	.	.	.	.
4r	4ryy	8f/	.	.	.	.	.	.	.	.	.	.	.	.	.
.	.	8g/J)	.	.	.	.	.	.	.	.	.	.	.	.	.
=15	=15	=15	=15	=15	=15	=15	=15	=15	=15	=15	=15	=15	=15	=15	=15
*	*	*^	*	*	*	*	*	*	*	*	*	*	*	*	*
!	!	!	!	!	!	!	!LO:DY:b:rj	!	!	!LO:DY:b:rj	!	!	!LO:DY:b:rj	!	!	!LO:DY:b:rj
[2F/	(4FF\	(2a 2c/	2ryy	mf	(>4FF/	Ma-	mf	2F/	Ma-	mf	2c/	Ma-	mf	2a/	Ma-	mf
.	4AA\	.	.	.	4AA/)	.	.	.	.	.	.	.	.	.	.	.
8F/L]	4BB-\	4dd/	4g 4d\	.	(>4BB-/	-ry-	.	8F/L	-ry-	.	(>4d/	-ry-	.	(4g/	-ry-	.
8E/	.	.	.	.	.	.	.	8E/	.	.	.	.	.	.	.	.
8F/	4AA\	4cc#X 4a/	8f\L	.	4AA/)	.	.	8F/	.	.	4c#X/)	.	.	8f/L	.	.
8G/J	.	.	8e\J	.	.	.	.	8G/J	.	.	.	.	.	8e/J)	.	.
*v	*v	*	*	*	*	*	*	*	*	*	*	*	*	*	*	*
=16	=16	=16	=16	=16	=16	=16	=16	=16	=16	=16	=16	=16	=16	=16	=16
!	!	!	!	!	!	!LO:HP:a	!	!	!LO:HP:a	!	!	!LO:HP:a	!	!	!LO:HP:a
[2F [2D\)	4dd/)	8a 8d\	.	[2D\	-a	>	[>2F/	-a	>	[>2d/	-a	>	[>2d/	-ja	>
.	.	8ryy	.	.	.	.	.	.	.	.	.	.	.	.	.
.	(>4a/	4ryy	.	.	.	.	.	.	.	.	.	.	.	.	.
8F] 8D\]	4d/	2ryy	.	8D\]	.	.	8F/]	.	.	8d/]	.	.	8d/]	.	]
8r	.	.	.	8r	.	]	8r	.	]	8r	.	]	8r	.	.
4r	4e/	.	.	4r	.	.	4r	.	.	4r	.	.	4r	.	.
=17	=17	=17	=17	=17	=17	=17	=17	=17	=17	=17	=17	=17	=17	=17	=17
*^	*	*	*	*	*	*	*	*	*	*	*	*	*	*	*
!	!	!	!	!LO:DY:rj	!	!	!LO:DY:b:rj	!	!	!LO:DY:b:rj	!	!	!LO:DY:b:rj	!	!	!LO:DY:b:rj
4rc	2r	2f/)	[2f\	p	2D\	zi-	p	2A/	zi-	p	2d/	zi-	p	2f/	zi-	p
4d/	.	.	.	.	.	.	.	.	.	.	.	.	.	.	.	.
!	!	!	!	!	!	!	!LO:HP:a	!	!	!LO:HP:a	!	!	!LO:HP:a	!	!	!LO:HP:a
2c/	4r	4g/	4f\]	.	2C/	-ści	<[	2c\	-ści	<	(>4f/	-ści	<	(4g/	-ści	<
.	4C\	8a/L	4e\	.	.	.	.	.	.	.	4e/)	.	[[	8a/L	.	.
.	.	8b-/J	.	.	.	.	.	.	.	[[	.	.	.	8b-/J)	.	[[
=18	=18	=18	=18	=18	=18	=18	=18	=18	=18	=18	=18	=18	=18	=18	=18	=18
!	!	!	!	!	!	!	!LO:HP:a	!	!	!LO:HP:a	!	!	!LO:HP:a	!	!	!LO:HP:a
4c/	4F\	4a/	4f\	.	[2F\	nam	>	[2c\	nam	>	[2f/	nam	>	[>2a/	nam	>
4r	4ryy	[<4f/	4r	.	.	.	.	.	.	.	.	.	.	.	.	.
2r	2ryy	8f/L]	2r	.	8F\]	.	]	8c\]	.	.	8f/]	.	]	8a/]	.	]
.	.	8g/	.	.	8r	.	.	8r	.	]	8r	.	.	8r	.	.
.	.	8a/	.	.	4r	.	.	4r	.	.	4r	.	.	4r	.	.
.	.	8b-/J	.	.	.	.	.	.	.	.	.	.	.	.	.	.
!!LO:LB:g=original
=19	=19	=19	=19	=19	=19	=19	=19	=19	=19	=19	=19	=19	=19	=19	=19	=19
4A/	4F\	(2cc/	4f\	.	(4F\	spu-	.	4A/	Spu-	.	(>4f/	Spu-	.	(2cc\	Spu-	.
!	!	!	!	!LO:HP:t=cresc	!	!	!LO:HP:a:t=cresc&colon;	!	!	!LO:HP:a:t=cresc&colon;	!	!	!LO:HP:a:t=cresc&colon;	!	!	!LO:HP:a:t=cresc&colon;
4G/	4E\	.	2g\	<	4E\	.	<	4G/	.	<	2g/)	.	<	.	.	<
8A/L	2D\	2dd/	.	.	4D\)	.	.	8A/L	.	.	.	.	.	4dd\)	.	.
8G/	.	.	.	.	.	.	.	8G/J	.	.	.	.	.	.	.	.
8A/	.	.	4f\	.	4D\	-ści	.	8A/L	-ści	.	4f/	-ści	.	4dd\	-ści	.
8B-/J	.	.	.	.	.	.	.	8B-/J	.	.	.	.	.	.	.	.
=20	=20	=20	=20	=20	=20	=20	=20	=20	=20	=20	=20	=20	=20	=20	=20	=20
!	!	!	!	!	!	!	!LO:HP:a	!	!	!LO:HP:a	!	!	!LO:HP:a	!	!	!LO:HP:a
4c/	4C\	4g/)	4e\	.	[>2C/	nam	>	[2c\	nam	>	[>2e/	nam	>	[>2g/	nam	>
4r	4ryy	4ccc/	4cc\	.	.	.	.	.	.	.	.	.	.	.	.	.
2r	2ryy	4gg/	4g\	.	8C/]	.	.	8c\]	.	]	8e/]	.	]	8g/]	.	]
.	.	.	.	.	8r	.	]	8r	.	.	8r	.	.	8r	.	.
.	.	8ee/L	8e\L	.	4r	.	.	4r	.	.	4r	.	.	4r	.	.
!	!	!	!	!	!	!	!LO:DY:b	!	!	!LO:DY:b	!	!	!LO:DY:b	!	!	!LO:DY:b
.	.	8dd/J	8d\J	.	.	.	mf	.	.	mf	.	.	mf	.	.	mf
=21	=21	=21	=21	=21	=21	=21	=21	=21	=21	=21	=21	=21	=21	=21	=21	=21
!	!	!	!	!LO:DY:rj	!	!	!	!	!	!	!	!	!	!	!	!
2.A/	(>4AA\	(2cc 2e/	2.c\	mf	4AA/	Ky-	.	4c\	Ky-	.	4e/	Ky-	.	4cc\	Ky-	.
.	4C\	.	.	.	4C/	-ri-	.	4c\	-ri-	.	4e/	-ri-	.	4cc\	-ri-	.
.	4F\)	4a 4f/)	.	.	4F\	-e	.	4c\	-e	.	4f/	-e	.	4a/	-e	.
4A/	4F\	(4a 4f/	4c\	.	4F\	e-	.	4c\	e-	.	4f/	e-	.	4a/	e-	.
=22	=22	=22	=22	=22	=22	=22	=22	=22	=22	=22	=22	=22	=22	=22	=22	=22
4E 4C/	4ryy	4g 4e 4c/	2ryy	.	(4C/	-lei-	.	(4c\	-lei-	.	(>4e/	-lei-	.	(>4g/	-lei-	.
8F/L	8D\L	8fL 8d 8A/	.	.	8D/L	.	.	4A/)	.	.	8d/L	.	.	8f/L	.	.
8G/J	8AA\J	8eJ 8c/	.	.	8AA/J)	.	.	.	.	.	8c/J)	.	.	8e/J)	.	.
[2F/	(2D\	4d/	2A\	.	2D\	-son	.	2F/	-son	.	2A/	-son	.	2d/	-son	.
.	.	4a/)	.	.	.	.	.	.	.	.	.	.	.	.	.	.
!	!	!	!	!	!	!	!LO:DY:b	!	!	!LO:DY:b	!	!	!LO:DY:b	!	!	!LO:DY:b
.	.	.	.	.	.	.	p	.	.	p	.	.	p	.	.	p
*	*	*v	*v	*	*	*	*	*	*	*	*	*	*	*	*	*
=23	=23	=23	=23	=23	=23	=23	=23	=23	=23	=23	=23	=23	=23	=23	=23
4F/]	4BB-\)	4d 4B-/	.	4BB-/	Twe-	.	4F/	Twe-	.	4B-/	Twe-	.	4d/	Twe-	.
4r	4ryy	4r	.	4BB-/	-go	.	4F/	-go	.	4B-/	-go	.	4d/	-go	.
2r	2ryy	2r	.	(>4BB-/	Sy-	.	[>2F/	Sy-	.	(>[>2c/	Sy-	.	[>2f/	Sy-	.
.	.	.	.	4AA/)	.	.	.	.	.	.	.	.	.	.	.
=24	=24	=24	=24	=24	=24	=24	=24	=24	=24	=24	=24	=24	=24	=24	=24
*	*	*^	*	*	*	*	*	*	*	*	*	*	*	*	*
!	!	!	!	!	!	!	!LO:HP:a	!	!	!	!	!	!	!	!	!LO:HP:a
4r	4ryy	4r	4ryy	.	2D\	.	<	2F/]	.	.	4c/]	.	.	2f/]	.	<
!	!	!	!LO:N:vis=4	!	!	!	!	!	!	!LO:HP:a	!	!	!LO:HP:a	!	!	!
([4f/	4d\	(4ff/	8b-\	.	.	.	.	.	.	<	8B-/L	.	<	.	.	.
!	!	!	!LO:N:vis=4	!	!	!	!	!	!	!	!	!	!	!	!	!
.	.	.	8a\	.	.	.	.	.	.	.	8A/J)	.	.	.	.	.
4f/]	2c\	2gg/)	4.cc\	.	2C/	-na	[[	(>4F/	-na	.	(>4.c/	-na	.	2g/	-na	[[
4e/	.	.	.	.	.	.	.	4E/)	.	.	.	.	.	.	.	.
.	.	.	8b-\	.	.	.	.	.	.	[	8B-/)	.	[	.	.	.
=25	=25	=25	=25	=25	=25	=25	=25	=25	=25	=25	=25	=25	=25	=25	=25	=25
4f/)	4d\	8ff/L	4a\	.	2D\	Chrzci-	.	2F/	Chrzci-	.	(>4A/	Chrzci-	.	2f/	Chrzci-	.
.	.	8ee/J	.	.	.	.	.	.	.	.	.	.	.	.	.	.
!	!	!	!	!	!	!	!LO:HP:a	!	!	!LO:HP:a	!	!	!LO:HP:a	!	!	!LO:HP:a
4r	4ryy	2dd/	4r	.	.	.	>	.	.	>	4d/)	.	>	.	.	>
2A 2AA/	2ryy	.	2a 2e\	.	2AA/	-cie-	]]	2A/	-cie-	.	(>4d/	-cie-	.	2e/	-cie-	.
.	.	4cc#X/	.	.	.	.	.	.	.	]	4c#X/)	.	]]	.	.	]]
*v	*v	*	*	*	*	*	*	*	*	*	*	*	*	*	*	*
*	*v	*v	*	*	*	*	*	*	*	*	*	*	*	*	*
!!LO:LB:g=original
=26	=26	=26	=26	=26	=26	=26	=26	=26	=26	=26	=26	=26	=26	=26
1A 1D;	1dd 1a 1d;	.	1D;	-la	.	1A;	-la	.	1d;	-la	.	1d;	-la	.
=27||	=27||	=27||	=27||	=27||	=27||	=27||	=27||	=27||	=27||	=27||	=27||	=27||	=27||	=27||
*M4/4	*M4/4	*	*M4/4	*	*	*M4/4	*	*	*M4/4	*	*	*M4/4	*	*
*met(c)	*met(c)	*	*met(c)	*	*	*met(c)	*	*	*met(c)	*	*	*met(c)	*	*
*	*^	*	*	*	*	*	*	*	*	*	*	*	*	*
!LO:N:vis=1	!LO:N:vis=4	!LO:N:vis=2	!	!	!	!LO:DY:b:rj	!	!	!LO:DY:b:rj	!	!	!LO:DY:b:rj	!LO:TX:a:B:t=Allegretto	!	!LO:DY:b:rj
0C 0FF	(2c/	1A	p	(>4C/	A-	p	(>4C/	A-	p	(>4c/	A-	p	(>4c/	A-	p
.	.	.	.	4F\)	.	.	4F/)	.	.	4f/)	.	.	4f/)	.	.
!	!LO:N:vis=4	!	!	!	!	!	!	!	!	!	!	!	!	!	!
.	2f/)	.	.	4F\	-da-	.	4F/	-da-	.	4f/	-da-	.	4f/	-da-	.
.	.	.	.	8F\	-mie	.	8F/	-mie	.	8f/	-mie	.	8f/	-mie	.
.	.	.	.	8F\	ty	.	8F/	ty	.	8f/	ty	.	8f/	ty	.
=28-	=28-	=28-	=28-	=28-	=28-	=28-	=28-	=28-	=28-	=28-	=28-	=28-	=28-	=28-	=28-
!	!LO:N:vis=4	!LO:N:vis=2	!	!	!	!	!	!	!	!	!	!	!LO:TX:a:i:t=Boży Kmieciu:color=grey	!	!
.	(2g/	1g 1c	.	4E\	kmie-	.	4E/	kmie-	.	4e/	kmie-	.	4e/	kmie-	.
.	.	.	.	8E\L	-ciu	.	8E/L	-ciu	.	8e/L	-ciu	.	8e/L	-ciu	.
.	.	.	.	8F\J	.	.	8F/J	.	.	8f/J	.	.	8f/J	.	.
!	!LO:N:vis=4	!	!	!	!	!	!	!	!	!	!	!	!	!	!
.	2cc/)	.	.	8G\L	Bo-	.	8G/L	Bo-	.	8g/L	Bo-	.	8g/L	Bo-	.
.	.	.	.	8F\J	.	.	8F/J	.	.	8f/J	.	.	8f/J	.	.
.	.	.	.	8E\	-ży	.	8E/	-ży	.	8e/	-ży	.	8e/	-ży	.
.	.	.	.	8r	.	.	8r	.	.	8r	.	.	8r	.	.
=29	=29	=29	=29	=29	=29	=29	=29	=29	=29	=29	=29	=29	=29	=29	=29
!LO:N:vis=1	!LO:N:vis=4	!LO:N:vis=2	!	!	!	!	!	!	!	!	!	!	!	!	!
0C 0FF	(2c/	1A	.	(>4C/	ty	.	(>4C/	ty	.	(>4c/	ty	.	(>4c/	ty	.
.	.	.	.	4F\)	.	.	4F/)	.	.	4f/)	.	.	4f/)	.	.
!	!LO:N:vis=4	!	!	!	!	!	!	!	!	!	!	!	!	!	!
.	2f/)	.	.	4F\	sie-	.	4F/	sie-	.	4f/	sie-	.	4f/	sie-	.
.	.	.	.	8F\	-dzisz	.	8F/	-dzisz	.	8f/	-dzisz	.	8f/	-dzisz	.
.	.	.	.	8F\	u	.	8F/	u	.	8f/	u	.	8f/	u	.
=30-	=30-	=30-	=30-	=30-	=30-	=30-	=30-	=30-	=30-	=30-	=30-	=30-	=30-	=30-	=30-
!	!LO:N:vis=4	!LO:N:vis=2	!	!	!	!	!	!	!	!	!	!	!	!	!
.	(2g/	1g 1c	.	8E\L	Bo-	.	8E/L	Bo-	.	8e/L	Bo-	.	8e/L	Bo-	.
.	.	.	.	8F\J	.	.	8F/J	.	.	8f/J	.	.	8f/J	.	.
.	.	.	.	4G\	-ga	.	4G/	-ga	.	4g/	-ga	.	4g/	-ga	.
!	!LO:N:vis=4	!	!	!	!	!	!	!	!	!	!	!	!	!	!
.	2cc/)	.	.	4F\	w_wie-	.	4F/	w_wie-	.	4f/	w_wie-	.	4f/	w_wie-	.
.	.	.	.	4E\	-cu	.	4E/	-cu	.	4e/	-cu	.	4e/	-cu	.
!!LO:PB:g=original
=31	=31	=31	=31	=31	=31	=31	=31	=31	=31	=31	=31	=31	=31	=31	=31
*^	*	*	*	*	*	*	*	*	*	*	*	*	*	*	*
!	!	!	!	!	!	!	!LO:DY:b	!	!	!LO:DY:b	!	!	!LO:DY:bLO:DY:b	!	!	!LO:DY:b:rj
4r	4ryy	(1ff	2f\	mf	4r	.	mf	4r	.	mf	4r	.	mf	4c/	Do-	mf
(4D/	8D\L	.	.	.	8D/L	do-	.	4A/	do-	.	4d/	do-	.	4f/	-mieść	.
.	8C\J	.	.	.	8C/J	.	.	.	.	.	.	.	.	.	.	.
4G/	4BB-\	.	4g\	.	4BB-/	-mieść	.	4G/	-mieść	.	4d/	-mieść	.	4g/	nas	.
4F/	8AA\L	.	8a\L	.	8AA/L	swe	.	4F/	swe	.	4d/	swe	.	8a/L	swe	.
.	8GG\J	.	8b-\J	.	8GG/J	.	.	.	.	.	.	.	.	8b-/J	.	.
=32	=32	=32	=32	=32	=32	=32	=32	=32	=32	=32	=32	=32	=32	=32	=32	=32
4E/	2C\	4ee 4cc/)	4a\	.	[>4C/	dzie-	.	4E/	dzie-	.	4c/	dzie-	.	(>4a/	dzie-	.
4B-/)	.	8dd/L	4g\	.	4C/]	.	.	4B-\	.	.	8d/L	.	.	4g/)	.	.
.	.	8ee/J	.	.	.	.	.	.	.	.	8e/J	.	.	.	.	.
2A/	2D\	4ff/	2f\	.	2D\	-ci	.	2A/	-ci	.	2f/	-ci	.	2f/	-ci	.
.	.	4dd/	.	.	.	.	.	.	.	.	.	.	.	.	.	.
=33	=33	=33	=33	=33	=33	=33	=33	=33	=33	=33	=33	=33	=33	=33	=33	=33
8A/L	8F\L	4cc/	[2f\	.	8F\L	gdzie	.	8A/L	gdzie	.	4c/	gdzie	.	4a/	gdzie	.
8G/J	8E\	.	.	.	8E\J	.	.	8G/J	.	.	.	.	.	.	.	.
2.F/	8D\	8b-/L	.	.	8D\L	kró-	.	4F/	kró-	.	4f/	kró-	.	8b-/L	kró-	.
.	8C\J	8cc/J	.	.	8C\J	.	.	.	.	.	.	.	.	8cc/J	.	.
.	4BB-\	2dd 2f/]	4g/	.	4BB-/	-lu-	.	4F/	-lu-	.	4d/	-lu-	.	4g/	-lu-	.
.	8AA\L	.	8a/L	.	8AA/	ją	.	8F/	-ją	.	8d/	-ją	.	8a/	-ją	.
.	8GG\J	.	8b-/J	.	8GG/	A-	.	8F/	A-	.	8d/	A-	.	8b-/	A-	.
=34	=34	=34	=34	=34	=34	=34	=34	=34	=34	=34	=34	=34	=34	=34	=34	=34
4F/	2C\	1cc	4a 4f\	.	[>4C/	-nie-	.	4F/	-nie-	.	2c/	-nie-	.	(>4a/	-nie-	.
8E/L	.	.	4g 4c\	.	4C/]	.	.	8E/L	.	.	.	.	.	4g/)	.	.
8G/J	.	.	.	.	.	.	.	8G/J	.	.	.	.	.	.	.	.
2A/	2F\	.	2f 2c\	.	2F\	-li	.	2A/	-li	.	4c/	-li	.	2f/	-li	.
.	.	.	.	.	.	.	.	.	.	.	4r	.	.	.	.	.
*v	*v	*	*	*	*	*	*	*	*	*	*	*	*	*	*	*
=35	=35	=35	=35	=35	=35	=35	=35	=35	=35	=35	=35	=35	=35	=35	=35
!	!	!	!	!	!	!LO:DY:b	!	!	!LO:DY:b	!	!	!LO:DY:b	!	!	!LO:DY:b:rj
4r	4r	2ryy	.	4r	.	ff	4r	.	ff	4r	.	ff	8f/L	Tam	ff
.	.	.	.	.	.	.	.	.	.	.	.	.	8g/J	.	.
([4F\	4f/	.	f	4F\	tam	.	4F/	tam	.	4f/	tam	.	8a/L	ra-	.
.	.	.	.	.	.	.	.	.	.	.	.	.	8b-/J	.	.
8F\L]	2g/	(>8g\L	.	8F\L	ra-	.	4G/	ra-	.	8g/L	ra-	.	2cc\	-dość	.
8E\	.	8c\	.	8E\J	.	.	.	.	.	8c/J	.	.	.	.	.
8D\	.	8d\	.	8D\L	-dość	.	4G/	-dość	.	8d/L	-dość	.	.	.	.
8C\J	.	8e\J	.	8C\J	.	.	.	.	.	8e/J	.	.	.	.	.
=36	=36	=36	=36	=36	=36	=36	=36	=36	=36	=36	=36	=36	=36	=36	=36
8BB-\L	2.b-/	8d\L	.	8BB-/L	tam	.	4B-\	tam	.	4f/	tam	.	8dd\L	tam	.
8C\	.	8e\	.	8C/J	.	.	.	.	.	.	.	.	8ee\J	.	.
8D\	.	8f\	.	8D\L	mi-	.	2B-\	mi-	.	4f/	mi-	.	8ff\L	mi-	.
8E\J	.	8g\J)	.	8E\J	.	.	.	.	.	.	.	.	8dd\J	.	.
2F\)	.	2c\	.	2F\	-łość	.	.	.	.	2f/	-łość	.	2cc\	-łość	.
.	8a/L	.	.	.	.	.	8A/L	-łość	.	.	.	.	.	.	.
.	8g/J	.	.	.	.	.	8G/J	.	.	.	.	.	.	.	.
!!LO:LB:g=original
=37	=37	=37	=37	=37	=37	=37	=37	=37	=37	=37	=37	=37	=37	=37	=37
!	!	!	!LO:DY:rj	!	!	!LO:DY:b:rj	!	!	!LO:DY:b:rj	!	!	!LO:DY:b:rj	!	!	!LO:DY:b:rj
4F\	4a/	4c\	pp	4F\	tam	pp	4A/	tam	pp	4c/	tam	pp	4f/	tam	pp
4r	4r	4ryy	.	4D\	wi-	.	4A/	wi-	.	4d/	wi-	.	4f/	wi-	.
2r	2r	2ryy	.	4AA/	-dze-	.	4c/	-dze-	.	4e/	-dze-	.	4e/	-dze-	.
.	.	.	.	8BB-/L	-nie	.	4B-/	-nie	.	4d/	-nie	.	4g/	-nie	.
.	.	.	.	8C/J	.	.	.	.	.	.	.	.	.	.	.
=38	=38	=38	=38	=38	=38	=38	=38	=38	=38	=38	=38	=38	=38	=38	=38
*^	*	*	*	*	*	*	*	*	*	*	*	*	*	*	*
4r	4ryy	4r	4ryy	.	2D\	Twór-	.	2A/	Twór-	.	2d/	Twór-	.	2f/	Twór-	.
2A/	2D\	(4dd/	2f\	p	.	.	.	.	.	.	.	.	.	.	.	.
.	.	4a/	.	.	2D\	-ca	.	2A/	-ca	.	2d/	-ca	.	2f/	-ca	.
4r	4ryy	8d/L	4ryy	.	.	.	.	.	.	.	.	.	.	.	.	.
.	.	8e/J	.	.	.	.	.	.	.	.	.	.	.	.	.	.
=39	=39	=39	=39	=39	=39	=39	=39	=39	=39	=39	=39	=39	=39	=39	=39	=39
!	!	!	!	!	!	!	!LO:DY:b:rj	!	!	!LO:DY:b:rj	!	!	!LO:DY:b:rj	!	!	!LO:DY:b:rj
4r	4ryy	4f/)	4ryy	.	4D\	A-	p	4A/	A-	p	4d/	A-	p	4f/	A-	p
8B-/L	4BB-\	(4f/	4d\	.	4BB-/	-niel-	.	8B-/L	-niel-	.	4d/	-niel-	.	4f/	-niel-	.
8A/J	.	.	.	.	.	.	.	8A/J	.	.	.	.	.	.	.	.
4G/	4C\	4e/	2c\	.	4C/	-skie	.	4G/	-skie	.	4c/	-skie	.	4e/	-skie	.
4A/	4AA\	4f/	.	.	4AA/	bez	.	4A/	bez	.	4c/	bez	.	4f/	bez	.
=40	=40	=40	=40	=40	=40	=40	=40	=40	=40	=40	=40	=40	=40	=40	=40	=40
!	!	!	!	!	!	!	!LO:HP:a	!	!	!LO:HP:a	!	!	!LO:HP:a	!	!	!LO:HP:a
2B-/	(2GG\	4g/	2.d\	<	2GG/	koń-	<	2B-\	koń-	<	2d/	koń-	<	2g/	koń-	<
.	.	4a/	.	.	.	.	.	.	.	.	.	.	.	.	.	.
2B-/	2G\)	2b-/	.	.	2G\	-ca	[[	2B-\	-ca	[[	(>4d/	-ca	.	2g/	-ca	[[
.	.	.	.	[	.	.	.	.	.	.	.	.	.	.	.	.
.	.	.	4e\	.	.	.	.	.	.	.	4e/)	.	[	.	.	.
=41	=41	=41	=41	=41	=41	=41	=41	=41	=41	=41	=41	=41	=41	=41	=41	=41
!	!	!	!	!	!	!	!LO:DY:b:rj	!	!	!LO:DY:b:rj	!	!	!LO:DY:b:rj	!	!	!LO:DY:b:rj
4c/	4F\	4a/)	2f\	.	4F\	tu	mf	4c\	tu	mf	4f/	tu	mf	4a/	tu	mf
4r	4ryy	4r	.	.	4D\	się	.	4d\	się	.	4f/	się	.	4b-\	się	.
2r	2ryy	2r	2ryy	.	2C/	nam	.	2G/	nam	.	(>4f/	nam	.	2cc\	nam	.
.	.	.	.	.	.	.	.	.	.	.	8e/L	.	.	.	.	.
.	.	.	.	.	.	.	.	.	.	.	8d/J)	.	.	.	.	.
*v	*v	*	*	*	*	*	*	*	*	*	*	*	*	*	*	*
*	*v	*v	*	*	*	*	*	*	*	*	*	*	*	*	*
=42	=42	=42	=42	=42	=42	=42	=42	=42	=42	=42	=42	=42	=42	=42
1r	1r	.	4F\	zja-	.	8A/L	zja-	.	4c/	zja-	.	4a/	zja-	.
.	.	.	.	.	.	8B-/J	.	.	.	.	.	.	.	.
.	.	.	4C/	-wi-	.	4c\	-wi-	.	4e/	-wi-	.	4g/	-wi-	.
.	.	.	2F\	-ło	.	2c\	-ło	.	2f/	-ło	.	2a/	-ło	.
!!LO:LB:g=original
=43	=43	=43	=43	=43	=43	=43	=43	=43	=43	=43	=43	=43	=43	=43
!	!	!	!	!	!LO:DY:b:rj	!	!	!LO:DY:b:rj	!	!	!LO:DY:b:rj	!	!	!LO:DY:b:rj
1r	1r	.	4F\	Dja-	ppp	4F/	Dja-	ppp	4f/	Dja-	ppp	4f/	Dja-	ppp
.	.	.	4F\	-ble	.	4F/	-ble	.	4f/	-ble	.	4f/	-ble	.
.	.	.	4E\	po-	.	4E/	po-	.	4e/	po-	.	4e/	po-	.
.	.	.	4G\	-tę-	.	4G/	-tę-	.	4g/	-tę-	.	4g/	-tę-	.
=44	=44	=44	=44	=44	=44	=44	=44	=44	=44	=44	=44	=44	=44	=44
*^	*^	*	*	*	*	*	*	*	*	*	*	*	*	*
4r	4ryy	4r	4ryy	.	2F\	-pie-	.	2F/	-pie-	.	2f/	-pie-	.	2f/	-pie-	.
2c/	2F\	(4ff/	2a\	.	.	.	.	.	.	.	.	.	.	.	.	.
!	!	!LO:TX:b:t=dolce	!	!	!	!	!	!	!	!	!	!	!	!	!	!
.	.	4cc/	.	.	2F\	-nie	.	2F/	-nie	.	2f/	-nie	.	2f/	-nie	.
4r	4ryy	8a/L	4r	.	.	.	.	.	.	.	.	.	.	.	.	.
!	!	!	!	!	!	!	!	!	!	!	!	!	!	!	!	!LO:DY:b
.	.	8g/J)	.	.	.	.	.	.	.	.	.	.	.	.	.	ff
*v	*v	*	*	*	*	*	*	*	*	*	*	*	*	*	*	*
=45	=45	=45	=45	=45	=45	=45	=45	=45	=45	=45	=45	=45	=45	=45	=45
!	!	!	!	!	!	!LO:DY:b	!	!	!LO:DY:b	!	!	!LO:DY:b	!LO:TX:a:i:t=Te-goż:color=grey	!	!
4r	8f/L	4ryy	ff	4r	.	ff	4r	.	ff	4r	.	ff	8f/L	te-	.
.	8g/	.	.	.	.	.	.	.	.	.	.	.	8g/J	.	.
([4F\	8a/	4f\	.	4F\	te-	.	4F/	te-	.	4f/	te-	.	8a/L	-goż	.
.	8b-/J	.	.	.	.	.	.	.	.	.	.	.	8b-/J	.	.
8F\L]	2cc/	8g\L	.	8F\L	-goż	.	4G/	-goż	.	8g/L	-goż	.	2cc\	nas	.
8E\	.	8c\	.	8E\J	.	.	.	.	.	8c/J	.	.	.	.	.
8D\	.	8d\	.	8D\L	nas	.	4G/	nas	.	8d/L	nas	.	.	.	.
8C\J	.	8e\J	.	8C\J	.	.	.	.	.	8e/J	.	.	.	.	.
=46	=46	=46	=46	=46	=46	=46	=46	=46	=46	=46	=46	=46	=46	=46	=46
8BB-\L	4dd/	2f\	.	8BB-/L	do-	.	4B-\	do-	.	4f/	do-	.	8dd\L	do-	.
8C\	.	.	.	8C/J	.	.	.	.	.	.	.	.	8ee\J	.	.
8D\	2b-/	.	.	8D\L	-mie-	.	4B-\	-mie-	.	4f/	-mie-	.	8ff\L	-mie-	.
8E\J	.	.	.	8E\J	.	.	.	.	.	.	.	.	8dd\J	.	.
2F\)	.	2c\	.	2F\	-ści	.	(4B-\	-ści	.	2f/	-ści	.	2cc\	-sci	.
.	8a/L	.	.	.	.	.	8A/L	.	.	.	.	.	.	.	.
.	8g/J	.	.	.	.	.	8G/J)	.	.	.	.	.	.	.	.
!	!	!	!	!	!	!LO:DY:b	!	!	!LO:DY:b	!	!	!LO:DY:b	!	!	!LO:DY:b
.	.	.	.	.	.	p	.	.	p	.	.	p	.	.	p
=47	=47	=47	=47	=47	=47	=47	=47	=47	=47	=47	=47	=47	=47	=47	=47
*^	*	*	*	*	*	*	*	*	*	*	*	*	*	*	*
!	!	!	!	!	!	!	!	!	!	!	!	!	!	!LO:TX:a:B:t=Tempo I	!	!
4A/	4D\	4f/	4d\	.	4D\	Je-	.	4A/	Je-	.	4f/	Je-	.	4f/	Je-	.
4r	4ryy	4r	4ryy	.	4AA/	-zu	.	4A/	-zu	.	4c/	-zu	.	4e/	-su	.
2r	2ryy	2r	2ryy	.	4BB-/	Chry-	.	4F/	Chry-	.	4B-/	Chry-	.	4d/	Chry-	.
.	.	.	.	.	4GG/	-ste	.	4B-\	-ste	.	4d/	-ste	.	4g/	-ste	.
=48	=48	=48	=48	=48	=48	=48	=48	=48	=48	=48	=48	=48	=48	=48	=48	=48
4r	4ryy	4r	4ryy	.	2D\	mi-	.	2A/	mi-	.	2d/	mi-	.	2f/	mi-	.
2A/	2D\	(4dd/	2d\	.	.	.	.	.	.	.	.	.	.	.	.	.
.	.	4a/	.	p	2D\	-ły	.	2A/	-ły	.	2d/	-ły	.	2f/	-ły	.
4r	4ryy	8d/L	4ryy	.	.	.	.	.	.	.	.	.	.	.	.	.
.	.	8e/J	.	.	.	.	.	.	.	.	.	.	.	.	.	.
!!LO:PB:g=original
=49	=49	=49	=49	=49	=49	=49	=49	=49	=49	=49	=49	=49	=49	=49	=49	=49
4r	4ryy	4f/)	4r	.	4D\	by-	.	4A/	by-	.	4d/	by-	.	4f/	by-	.
8B-/L	(4BB-\	(4f/	4d\	.	4BB-/	-śmy	.	8B-/L	-śmy	.	4d/	-śmy	.	4f/	-śmy	.
8A/J	.	.	.	.	.	.	.	8A/J	.	.	.	.	.	.	.	.
4G/	4C\	4e/	2c\	.	4C/	z_To-	.	4G/	z_To-	.	4c/	z_To-	.	4e/	z_To-	.
4A/	4AA\	4f/	.	.	4AA/	-bą	.	4A/	-bą	.	4c/	-bą	.	4f/	-bą	.
=50	=50	=50	=50	=50	=50	=50	=50	=50	=50	=50	=50	=50	=50	=50	=50	=50
!	!	!	!	!	!	!	!LO:HP:a	!	!	!LO:HP:a	!	!	!LO:HP:a	!	!	!LO:HP:a
2B-/	2GG\	4g/	2.d\	<	2GG/	by-	<	2B-\	by-	<	2d/	by-	<	2g/	by-	<
.	.	4a/	.	.	.	.	.	.	.	.	.	.	.	.	.	.
2B-/	2G\)	2b-/)	.	.	2G\	-li	[	2B-\	-li	[	(>4d/	-li	[	2g/	-li	[[
.	.	.	4e\	[	.	.	.	.	.	.	4e/)	.	.	.	.	.
!	!	!	!	!	!	!	!LO:DY:b	!	!	!LO:DY:b	!	!	!LO:DY:b	!	!	!LO:DY:b
.	.	.	.	.	.	.	mf	.	.	mf	.	.	mf	.	.	mf
=51	=51	=51	=51	=51	=51	=51	=51	=51	=51	=51	=51	=51	=51	=51	=51	=51
4c/	4F\	4a/	4f\	.	4F\	gdzie	.	4c\	gdzie	.	4f/	gdzie	.	4a/	gdzie	.
4r	4ryy	4r	4ryy	.	4D\	się	.	4d\	się	.	4f/	się	.	4b-\	się	.
2r	2ryy	2r	2ryy	.	4C/	nam	.	4G/	nam	.	4f/	nam	.	4cc\	nam	.
.	.	.	.	.	4C/	ra-	.	4G/	ra-	.	(>8e/L	ra-	.	4cc\	ra-	.
.	.	.	.	.	.	.	.	.	.	.	8d/J)	.	.	.	.	.
*v	*v	*	*	*	*	*	*	*	*	*	*	*	*	*	*	*
*	*v	*v	*	*	*	*	*	*	*	*	*	*	*	*	*
=52	=52	=52	=52	=52	=52	=52	=52	=52	=52	=52	=52	=52	=52	=52
1r	1r	.	(4F\	-du-	.	(<8A/L	-du-	.	(>4c/	-du-	.	(>4a/	-du-	.
.	.	.	.	.	.	8B-/J	.	.	.	.	.	.	.	.
.	.	.	4C/)	.	.	4c\)	.	.	4e/)	.	.	4g/)	.	.
.	.	.	2F\	-ją	.	2c\	-ją	.	2f/	-ją	.	2a/	-ją	.
!	!	!	!	!	!LO:DY:b	!	!	!LO:DY:b	!	!	!LO:DY:b	!	!	!LO:DY:b
.	.	.	.	.	pp	.	.	pp	.	.	pp	.	.	pp
=53	=53	=53	=53	=53	=53	=53	=53	=53	=53	=53	=53	=53	=53	=53
1r	1r	.	4F\	już	.	4F/	już	.	4f/	już	.	4f/	już	.
.	.	.	4E\	nie-	.	4E/	nie-	.	4e/	nie-	.	4e/	nie-	.
.	.	.	4D\	-bie-	.	4D/	-bie-	.	4d/	-bie-	.	4d/	-bie-	.
.	.	.	4G\	-skie	.	4G/	-skie	.	4g/	-skie	.	4g/	-skie	.
=54	=54	=54	=54	=54	=54	=54	=54	=54	=54	=54	=54	=54	=54	=54
*	*^	*	*	*	*	*	*	*	*	*	*	*	*	*
4r	4r	4ryy	.	2F\	si-	.	2F/	si-	.	2f/	si-	.	2f/	si-	.
!	!LO:TX:t=P:problem=brak poczatku łuku	!	!	!	!	!	!	!	!	!	!	!	!	!	!
!	!LO:TX:b:i:t=dolce	!	!	!	!	!	!	!	!	!	!	!	!	!	!
2c 2F\	(4ff/	2a\	.	.	.	.	.	.	.	.	.	.	.	.	.
.	4cc/	.	.	2F\	-ły	.	2F/	-ły	.	2f/	-ły	.	2f/	-ły	.
4r	8a/L	4ryy	.	.	.	.	.	.	.	.	.	.	.	.	.
.	8g/J	.	.	.	.	.	.	.	.	.	.	.	.	.	.
*	*v	*v	*	*	*	*	*	*	*	*	*	*	*	*	*
!!LO:LB:g=original
=55	=55	=55	=55	=55	=55	=55	=55	=55	=55	=55	=55	=55	=55	=55
!	!	!	!	!	!LO:DY:b:rj	!	!	!LO:DY:b:rj	!	!	!LO:DY:b:rj	!LO:TX:a:B:t=Piu mosso	!	!LO:DY:b:rj
1r	4f/)	.	4D\	A-	p	4A/	A-	p	4d/	A-	p	4f/	A-	p
.	4r	.	4AA/	-men	.	4A/	-men	.	4c/	-men	.	4e/	-men,	.
.	2r	.	4BB-/	a-	.	4F/	a-	.	4B-/	a-	.	4d/	a-	.
.	.	.	4GG/	-men	.	4B-\	-men	.	4d/	-men	.	4g/	-men	.
=56	=56	=56	=56	=56	=56	=56	=56	=56	=56	=56	=56	=56	=56	=56
*^	*^	*	*	*	*	*	*	*	*	*	*	*	*	*
4r	4ryy	4r	4ryy	.	2D\	a-	.	2A/	A-	.	2d/	A-	.	2f/	A-	.
2A/	2D\	(4dd/	2f\	.	.	.	.	.	.	.	.	.	.	.	.	.
.	.	4a/	.	.	2D\	-men	.	2A/	-men	.	2d/	-men	.	2f/	-men	.
4r	4ryy	8d/L	4ryy	.	.	.	.	.	.	.	.	.	.	.	.	.
.	.	8e/J	.	.	.	.	.	.	.	.	.	.	.	.	.	.
=57	=57	=57	=57	=57	=57	=57	=57	=57	=57	=57	=57	=57	=57	=57	=57	=57
4r	4ryy	4f/	4r	.	4D\	a-	.	4A/	a-	.	4d/	a-	.	4f/	a-	.
8B-/L	4BB-\	4f/	4d\	.	4BB-/	-men	.	8B-/L	-men	.	4d/	-men	.	4f/	-men	.
8A/J	.	.	.	.	.	.	.	8A/J	.	.	.	.	.	.	.	.
4G/	4C\	4e/	2c\	.	4C/	a-	.	4G/	a-	.	4c/	a-	.	4e/	a-	.
4A/	4AA\	4f/)	.	.	4AA/	-men	.	4A/	-men	.	4c/	-men	.	4f/	-men	.
=58	=58	=58	=58	=58	=58	=58	=58	=58	=58	=58	=58	=58	=58	=58	=58	=58
!	!	!	!	!	!	!	!LO:HP:a	!	!	!LO:HP:a	!	!	!LO:HP:a	!	!	!LO:HP:a
2B-/	2GG\	4g/	2.d\	.	2GG/	a-	<	2B-\	A-	<	2d/	a-	<	2g/	a-	<
.	.	4a/	.	.	.	.	.	.	.	.	.	.	.	.	.	.
2B-/	2G\	(2b-/	.	.	2G\	-men	[[	2B-\	-men	[[	(>4d/	-men	.	2g/	-men	[[
.	.	.	4e\	.	.	.	.	.	.	.	4e/)	.	[	.	.	.
=59	=59	=59	=59	=59	=59	=59	=59	=59	=59	=59	=59	=59	=59	=59	=59	=59
!	!	!	!	!	!	!	!LO:DY:b:rj	!	!	!LO:DY:b:rj	!	!	!LO:DY:b:rj	!	!	!LO:DY:b:rj
4c/	4F\	4a/)	4f\	.	4F\	A-	mf	4c\	A-	mf	4f/	A-	mf	4a/	A-	mf
4r	4ryy	4r	4ryy	.	4D\	-men	.	4d\	-men	.	4f/	-men	.	4b-\	-men	.
2r	2ryy	2r	2ryy	.	4C/	ta-	.	4G/	ta-	.	4f/	ta-	.	4cc\	ta-	.
.	.	.	.	.	4C/	-ko	.	4G/	-ko	.	8e/L	-ko	.	4cc\	-ko	.
.	.	.	.	.	.	.	.	.	.	.	8d/J	.	.	.	.	.
*v	*v	*	*	*	*	*	*	*	*	*	*	*	*	*	*	*
*	*v	*v	*	*	*	*	*	*	*	*	*	*	*	*	*
=60	=60	=60	=60	=60	=60	=60	=60	=60	=60	=60	=60	=60	=60	=60
1r	1r	.	(4F\	Bóg	.	(8A\L	Bóg	.	(>4c/	Bóg	.	(>4a/	Bóg	.
.	.	.	.	.	.	8B-\J	.	.	.	.	.	.	.	.
.	.	.	4C/)	.	.	4c\)	.	.	4e/)	.	.	4g/)	.	.
.	.	.	2F\	daj	.	2c\	daj	.	2f/	daj	.	2a/	daj	.
!!LO:LB:g=original
=61	=61	=61	=61	=61	=61	=61	=61	=61	=61	=61	=61	=61	=61	=61
!	!	!	!	!	!LO:DY:b:rj	!	!	!LO:DY:b:rj	!	!	!LO:DY:b:rjLO:DY:b:rj	!LO:TX:a:B:t=sostenuto	!	!LO:DY:b:rj
1r	1r	.	4F\	by-	p	4F/	by-	p	4f/	by-	p	4f/	by-	p
.	.	.	4E\	-śmy	.	4E/	-śmy	.	4e/	-śmy	.	4e/	-śmy	.
.	.	.	4D\	wszy-	.	4D/	wszy-	.	4d/	wszy-	.	4d/	wszy-	.
.	.	.	4G\	-scy	.	4G/	-scy	.	4g/	-scy	.	4g/	-scy	.
=62	=62	=62	=62	=62	=62	=62	=62	=62	=62	=62	=62	=62	=62	=62
*	*^	*	*	*	*	*	*	*	*	*	*	*	*	*
!	!	!	!	!	!	!LO:HP:a	!	!	!LO:HP:a	!	!	!LO:HP:a	!	!	!
4r	4r	2ryy	.	4F\	po-	<	4F/	po-	<	4f/	po-	<	4f/	po-	.
!	!	!	!	!	!	!	!	!	!	!	!	!	!	!	!LO:HP:a
4E\	(>4e/	.	.	4E\	-szli	.	4E/	-szli	.	4e/	-szli	.	4e/	-szli	<
2F\	4f/	2f\	.	2F\	w_raj	[[	2F/	w_raj	[[	2f/	w_raj	[[	2f/	w_raj	[[
.	4g/	.	.	.	.	.	.	.	.	.	.	.	.	.	.
=63	=63	=63	=63	=63	=63	=63	=63	=63	=63	=63	=63	=63	=63	=63	=63
*^	*	*	*	*	*	*	*	*	*	*	*	*	*	*	*
!	!	!	!	!	!	!	!	!	!	!	!	!	!	!	!	!LO:HP:a:t=cresc&colon; e ritard&colon;
4r	(8F\L	4a/)	4ryy	.	8F\L	gdzie	.	4F/	gdzie	.	4c/	gdzie	.	4a/	gdzie	<
!	!	!	!	!	!	!	!LO:HP:a:t=cresc&colon; e ritard&colon;	!	!	!LO:HP:a:t=cresc&colon; e ritard&colon;	!	!	!LO:HP:a:t=cresc&colon; e ritard&colon;	!	!	!
.	8E\	.	.	.	8E\J	.	<	.	.	<	.	.	<	.	.	.
2F/	8D\	(2ff 2f/	(<8b-\L	.	8D\L	kró-	.	4F/	kró-	.	4f/	kró-	.	8b-\L	kró-	.
.	8C\J	.	8cc\J	.	8C\J	.	.	.	.	.	.	.	.	8cc\J	.	.
.	4BB-\)	.	4g\	.	4BB-/	-lu-	.	4F/	-lu-	.	4d/	-lu-	.	4g/	-lu-	.
([4F/	(8AA\L	4dd 4f/)	8a\L	.	8AA/L	-ją	.	4F/	-ją	.	4d/	-ją	.	8a/L	-ją	.
.	8GG\J	.	8b-\J	.	8GG/J	.	.	.	.	.	.	.	.	8b-/J	.	.
=64	=64	=64	=64	=64	=64	=64	=64	=64	=64	=64	=64	=64	=64	=64	=64	=64
*	*	*	*^	*	*	*	*	*	*	*	*	*	*	*	*	*
8F/L]	2C\)	1cc;	4a/)	4f\	.	4C/	A-	.	8F/L	A-	.	4c/	A-	.	4a/	A-	.
8D/	.	.	.	.	.	.	.	.	8D/J	.	.	.	.	.	.	.	.
8E/	.	.	4g [4c\	4ryy	.	4C/	-nie-	.	8E/L	-nie-	.	4c/	-nie-	.	8g/L	-nie-	.
8B-/J)	.	.	.	.	.	.	.	.	8B-/J	.	.	.	.	.	8f/J	.	.
2A;/	2C 2FF\	.	2f 2c\]	2ryy	.	2FF;/	-li	.	2A;/	-li	.	2c;/	-li	.	2f;/	-li	.
*v	*v	*	*	*	*	*	*	*	*	*	*	*	*	*	*	*	*
*	*v	*v	*v	*	*	*	*	*	*	*	*	*	*	*	*	*
==	==	==	==	==	==	==	==	==	==	==	==	==	==	==
*-	*-	*-	*-	*-	*-	*-	*-	*-	*-	*-	*-	*-	*-	*-
!!!system-decoration: <s1,s2,s3,s4>{(s5,s6)}
!!!RDF**kern: > = above
!!!RDF**kern: < = below
!!!ENC: Andrzej Kubiczek
!!!END: 2022-03-13
!!!ENC: Andrzej Kubiczek
!!!END: 2022-03-15
